X: 13221
T: Fisher's
R: hornpipe
M: 4/4
K: Dmajor
A2|:dAFA GBAG|FAFA GBAG|FDFD GEGE|FDFD A,3A|
dAFA GBAG|FAFA GBAG|FAdf fedc|1 d2d2 d3A:|2 d2d2 d3d||
|:ecAc ecge|fdAd fdaf|ecAc ecge|fdcB Adcd|
BGEG BdcB|AFDF AFdc|BdcB AGFE|1 D2D2 D3d:|2 D2D D4||

